64x64/apps/appimagekit-retroshare.svg

<svg height="64" width="64" xmlns="http://www.w3.org/2000/svg"><circle cx="33" cy="32" opacity=".2" r="28"/><circle cx="33" cy="31" fill="#17191e" r="28"/><path d="m33 3a28 28 0 0 0 -28 28 28 28 0 0 0 .018.492 28 28 0 0 1 27.982-27.492 28 28 0 0 1 27.975 27.492 28 28 0 0 0 .025-.492 28 28 0 0 0 -28-28z" fill="#f4f4f7" opacity=".1"/><path d="m39 51-26-26 36-10z" fill="none" stroke="#236ae4" stroke-width="6"/><circle cx="13" cy="26" opacity=".2" r="10"/><circle cx="13" cy="25" fill="#71d1ff" r="10"/><circle cx="49" cy="16" opacity=".2" r="10"/><circle cx="49" cy="15" fill="#71d1ff" r="10"/><circle cx="39" cy="52" opacity=".2" r="10"/><circle cx="39" cy="51" fill="#71d1ff" r="10"/><path d="m49 5a10 10 0 0 0 -10 10 10 10 0 0 0 .021.414 10 10 0 0 1 9.979-9.414 10 10 0 0 1 9.973 9.475 10 10 0 0 0 .027-.475 10 10 0 0 0 -10-10zm-36 10a10 10 0 0 0 -10 10 10 10 0 0 0 .021.414 10 10 0 0 1 9.979-9.414 10 10 0 0 1 9.973 9.475 10 10 0 0 0 .027-.475 10 10 0 0 0 -10-10zm26 26a10 10 0 0 0 -10 10 10 10 0 0 0 .021.414 10 10 0 0 1 9.979-9.414 10 10 0 0 1 9.973 9.475 10 10 0 0 0 .027-.475 10 10 0 0 0 -10-10z" fill="#f4f4f7" opacity=".2"/></svg>

<svg xmlns="http://www.w3.org/2000/svg" width="64" height="64"><circle style="opacity:.2" cx="33" cy="32" r="28"/><circle style="fill:#17191e" cx="33" cy="31" r="28"/><path style="opacity:.1;fill:#f4f4f7" d="M33 3A28 28 0 0 0 5 31a28 28 0 0 0 .018.492A28 28 0 0 1 33 4a28 28 0 0 1 27.975 27.492A28 28 0 0 0 61 31 28 28 0 0 0 33 3z"/><path style="fill:none;stroke:#236ae4;stroke-width:6" d="M39 51 13 25l36-10z"/><circle style="opacity:.2" cx="13" cy="26" r="10"/><circle style="fill:#71d1ff" cx="13" cy="25" r="10"/><circle style="opacity:.2" cx="49" cy="16" r="10"/><circle style="fill:#71d1ff" cx="49" cy="15" r="10"/><circle style="opacity:.2" cx="39" cy="52" r="10"/><circle style="fill:#71d1ff" cx="39" cy="51" r="10"/><path style="opacity:.2;fill:#f4f4f7" d="M49 5a10 10 0 0 0-10 10 10 10 0 0 0 .021.414A10 10 0 0 1 49 6a10 10 0 0 1 9.973 9.475A10 10 0 0 0 59 15 10 10 0 0 0 49 5zM13 15A10 10 0 0 0 3 25a10 10 0 0 0 .021.414A10 10 0 0 1 13 16a10 10 0 0 1 9.973 9.475A10 10 0 0 0 23 25a10 10 0 0 0-10-10zm26 26a10 10 0 0 0-10 10 10 10 0 0 0 .021.414A10 10 0 0 1 39 42a10 10 0 0 1 9.973 9.475A10 10 0 0 0 49 51a10 10 0 0 0-10-10z"/></svg>
